icon-themes/breeze_svg/chart2/res/typexy_16.svg

<svg viewBox="0 0 16 16" xmlns="http://www.w3.org/2000/svg"><path d="m2 2v11h-1v1h1v1h1v-1h11v-1h-11v-11zm10 0v1h1v-1zm1 1v1h1v-1zm0 1h-1v1h1zm-1 0v-1h-1v1zm-8-1v1h1v-1zm2 0v1h1v-1zm-2 2v1h1v-1zm2 0v1h1v-1zm3 3v1h1v-1zm2 0v1h1v-1zm-6 1v1h1v-1zm1 1v1h1v-1zm0 1h-1v1h1zm-1 0v-1h-1v1zm4-1v1h1v-1zm2 0v1h1v-1z" fill="#4d4d4d"/></svg>

<svg xmlns="http://www.w3.org/2000/svg" viewBox="0 0 16 16">
 <path 
     style="fill:#4d4d4d" 
     d="M 2 2 L 2 13 L 1 13 L 1 14 L 2 14 L 2 15 L 3 15 L 3 14 L 14 14 L 14 13 L 3 13 L 3 2 L 2 2 z M 12 2 L 12 3 L 13 3 L 13 2 L 12 2 z M 13 3 L 13 4 L 14 4 L 14 3 L 13 3 z M 13 4 L 12 4 L 12 5 L 13 5 L 13 4 z M 12 4 L 12 3 L 11 3 L 11 4 L 12 4 z M 4 3 L 4 4 L 5 4 L 5 3 L 4 3 z M 6 3 L 6 4 L 7 4 L 7 3 L 6 3 z M 4 5 L 4 6 L 5 6 L 5 5 L 4 5 z M 6 5 L 6 6 L 7 6 L 7 5 L 6 5 z M 9 8 L 9 9 L 10 9 L 10 8 L 9 8 z M 11 8 L 11 9 L 12 9 L 12 8 L 11 8 z M 5 9 L 5 10 L 6 10 L 6 9 L 5 9 z M 6 10 L 6 11 L 7 11 L 7 10 L 6 10 z M 6 11 L 5 11 L 5 12 L 6 12 L 6 11 z M 5 11 L 5 10 L 4 10 L 4 11 L 5 11 z M 9 10 L 9 11 L 10 11 L 10 10 L 9 10 z M 11 10 L 11 11 L 12 11 L 12 10 L 11 10 z "
     />
 </svg>
